X: 2
T: Barney Brallagan's Jig
R: slipjig
O:
B: Cole p.57
D:
Z: John Chambers <jc:trillian.mit.edu>
M: 9/8
L: 1/8
K: D
|: "D"F2A ABA ABA | F2A "A7"ABc def | "D"F2A ABA ABA | "G"Bcd "E7"efd "A7"cBA :|
|: "D"f2a f2a "A7"gfe | "D"f2a f2a "A7"g2e | "D"f2a f2a "A7"gfe | "G"Bcd "E7"efd "A7"cBA :|
|: "D"fz2 "A7"az2 "D"d3 | "Em"g2f e2d "A7"cBA | "D"fz2 "A7"ez2 "D"d3 | "G"B2B "A7"A2G "D"FED :|
%%sep 2 1 500
